X:1
T:I Kviledal
T:I Kivledal
T:Martin Andreas Udbye
T:Welhaven
C:Martin Andreas Udbye
%%score [ 1 2 3 4 ]
L:1/8
Q:1/4=74
M:4/4
K:C
V:1 treble-8 nm="T1"
V:2 treble-8 nm="T2"
V:3 bass nm="B1"
V:4 bass nm="B2"
V:1
"^Moderato" A2 | A2 A2 A2 (e d) | c2 B2 A2 A2 |!<(! A2 (f!<)! e) d2 (cd) |!>(! e4 B2!>)!!mf! d2 | %5
w: I|Kiv- le- dal, un- der|Bjer- ge- li, var|jev- net en Vei til _|Kir- ke; men|
 c2 B A A2!<(! (B^c)!<)! |"^cresc." d2 e f e2 (ed) | c2!>(! d c!>)! B2 (Ad) | (c2 B2) A2!mf! A2 | %9
w: op- pe i Li- en _|smut- ted en Sti ind- *|un- der de tæt- te _|Bir- * ke. Paa|
!<(! B2 c d e2 G G!<)! |!f! f2 e2 d2 !>!e2 | c2 B A A2 (Bc) | e2 d c B2!p! c2 | %13
w: Vei- en drog Fol- ket til|Sang og Bön, paa|Sti- en gik Bjer- gets _|Mö- er i Lön, og|
 c2!<(! (fe)!<)! d2 g f |!f!!>(! e2 d2 c2 B!>)!!mf! B | c2 A2 d2 e B | c4 (B2 c2) | B4 A2 |] %18
w: So- len _ spil- led i|Mor- gen- stun- den paa|Kir- kens Tag og paa|Bir- ke- *|lun- den.|
V:2
!p! A2 | A2 A2 A2 (A B) | A2 ^G2 A2 =G2 |!<(! F2 (A!<)! A) A2 A2 |!>(! B4 ^G2!>)!!mf! B2 | %5
w: I|Kiv- le- dal, un- der|Bjer- ge- li, var|jev- net en Vei til|Kir- ke; men|
 A2 ^G A A2!<(! A2!<)! |"^cresc." A2 A A A2 ^G2 | A2!>(! A A!>)! ^G2 A2 | (A2 ^G2) A2!mf! E2 | %9
w: op- pe i Li- en|smut- ted en Sti ind-|un- der de tæt- te|Bir- * ke. Paa|
!<(! G2 G G G2 G G!<)! |!f! d2 c2 B2 !>!B2 | A2 ^G A A2 A2 | c2 B A ^G2!p! G2 | %13
w: Vei- en drog Fol- ket til|Sang og Bön, paa|Sti- en gik Bjer- gets|Mö- er i Lön, og|
 A2!<(! c2!<)! B2 d d |!f!!>(! c2 B2 A2 ^G!>)!!mf! G | A2 A2 B2 B B | A4 (^G2 A2) | ^G4 A2 |] %18
w: So- len spil- led i|Mor- gen- stun- den paa|Kir- kens Tag og paa|Bir- ke- *|lun- den.|
V:3
!p! (C,D,) | E,2 D,E, F,2 (E, F,) | E,2 E,2 C,2 ^C,2 |!<(! D,2 (A,!<)! G,) F,2 A,2 | %4
w: I _|Kiv- le- * dal, un- der|Bjer- ge- li, var|jev- net en Vei til|
!>(! ^G,4 E,2!>)!!mf! E,2 | E,2 D, ^C, C,2!<(! (D,E,)!<)! |"^cresc." F,2 G, A, E,2 E,2 | %7
w: Kir- ke; men|op- pe i Li- en _|smut- ted en Sti ind-|
 E,2!>(! F, E,!>)! F,2 F,2 | E,4 C,2!mf! C,2 |!<(! D,2 E, F, G,2 G, G,!<)! | %10
w: un- der de tæt- te|Bir- ke. Paa|Vei- en drog Fol- ket til|
!f! G,2 G,2 G,2 !>!E,2 | E,2 D, C, C,2 (D,E,) | E,2 E, E, E,2!p! E,2 | F,2!<(! F,2!<)! F,2 G, G, | %14
w: Sang og Bön, paa|Sti- en gik Bjer- gets _|Mö- er i Lön, og|So- len spil- led i|
!f!!>(! G,2 G,2 E,2 E,!>)!!mf! E, | E,2 C,2 F,2 E, E, | E,4 E,4 | E,4 C,2 |] %18
w: Mor- gen- stun- den paa|Kir- kens Tag og paa|Bir- ke-|lun- den.|
V:4
!p! (A,,B,,) | C,2 B,,C, D,2 (C, D,) | E,2 E,2 A,,2 A,,2 |!<(! D,2 (D,!<)! D,) D,2 F,2 | %4
w: I _|Kiv- le- * dal, un- der|Bjer- ge- li, var|jev- net en Vei til|
!>(! E,4 E,2!>)!!mf! E,2 | A,,2 A,, A,, A,,2!<(! A,,2!<)! |"^cresc." D,2 D, D, C,2 B,,2 | %7
w: Kir- ke; men|op- pe i Li- en|smut- ted en Sti ind-|
 A,,2!>(! A,, A,,!>)! D,2 D,2 | E,4 A,,2!mf! A,,2 |!<(! G,,2 G,, G,, C,2 G, G,!<)! | %10
w: un- der de tæt- te|Bir- ke. Paa|Vei- en drog Fol- ket til|
!f! B,,2 C,2 G,,2 !>!^G,,2 | A,,2 A,, A,, A,,2 A,,2 | A,,2 A,, A,, E,2!p! E,2 | %13
w: Sang og Bön, paa|Sti- en gik Bjer- gets|Mö- er i Lön, og|
 F,2!<(! A,,2!<)! B,,2 B,, B,, |!f!!>(! C,2 G,,2 A,,2 E,!>)!!mf! E, | A,,2 A,,2 A,,2 ^G,, G,, | %16
w: So- len spil- led i|Mor- gen- stun- den paa|Kir- kens Tag og paa|
 A,,4 (E,2 C,D,) | E,4 A,,2 |] %18
w: Bir- ke- * *|lun- den.|

